packages/ui-icons/src/Basic/24/Block_24.svg

<svg xmlns="http://www.w3.org/2000/svg" viewBox="0 0 32 32"><path d="M15 20.72V23h2v-2.28a2 2 0 1 0-2 0Z"/><path d="M16 4a6 6 0 0 0-6 6v2H8v8a8 8 0 0 0 16 0v-8h-2v-2a6 6 0 0 0-6-6Zm-4 6a4 4 0 0 1 8 0v2h-8Zm10 10a6 6 0 0 1-12 0v-6h12Z"/></svg>

<svg id="Ready" xmlns="http://www.w3.org/2000/svg" viewBox="0 0 32 32"><title>Megaicons_work_24_1.8_cp</title><path d="M15,20.72V23h2V20.72a2,2,0,1,0-2,0Z"/><path d="M16,4a6,6,0,0,0-6,6v2H8v8a8,8,0,0,0,16,0V12H22V10A6,6,0,0,0,16,4Zm-4,6a4,4,0,0,1,8,0v2H12ZM22,20a6,6,0,0,1-12,0V14H22Z"/></svg>
